data/pieces/fancy/blackRook.svg

<svg xmlns="http://www.w3.org/2000/svg" width="1000pt" height="1000pt" viewBox="0 0 1000 1000"><path d="M192 903c0-22 8-40 17-51v-98l75-112V287l-58-71V76c34-5 79-9 107-9l7 59h85V63c24-2 51-3 75-3s50 1 74 3v63h86l7-60c28 0 73 5 107 10v140l-58 71v355l75 112v98c9 11 17 29 17 51 0 10-1 20-4 31H196c-3-11-4-21-4-31" style="stroke-width:2;stroke-linecap:butt;stroke-linejoin:miter;stroke:#fff;stroke-opacity:1;stroke-miterlimit:10;fill-rule:nonzero;fill:#fff;fill-opacity:1"/><path d="M192 903c0-22 8-40 17-51v-98l75-112V287l-58-71V76c34-5 79-9 107-9l7 59h85V63c24-2 51-3 75-3s50 1 74 3v63h86l7-60c28 0 73 5 107 10v140l-58 71v355l75 112v98c9 11 17 29 17 51 0 10-1 20-4 31H196c-3-11-4-21-4-31m35-61c0 5 0 7 1 10h544c1-3 1-5 1-10s-3-10-7-14H234c-4 4-7 9-7 14m23-636c80-12 150-17 246-17s174 5 254 17v-56H250zm6 538c0 3 0 7 2 10h484c2-3 2-7 2-10 0-15-6-27-25-46H281c-19 19-25 31-25 46m36-70h416c0-9-5-18-14-24h-50v-64c16 0 32 1 48 2v-24c-36-2-74-4-112-4v-82c40 2 79 4 112 6v-24q-22.5-1.5-48-3v-85c17 1 33 2 48 4v-24c-33-4-72-6-112-8v-54c40 2 79 4 112 6v-26c-71-6-120-8-192-8s-121 2-192 8v26c33-2 72-4 112-6v54c-40 2-79 4-112 8v24c15-2 31-3 48-4v85q-25.5 1.5-48 3v24c33-2 72-4 112-6v82c-38 0-76 2-112 4v24c16-1 32-2 48-2v64h-50c-9 6-14 15-14 24m88-24v-65c36-1 72-1 108-1v66zm0-194v-86c35-2 73-4 108-4v86c-35 0-73 2-108 4m64 104v-83c19-1 38-1 56-1s37 0 56 1v83zm0-217v-54c19-1 38-1 56-1s37 0 56 1v54c-19-1-38-1-56-1s-37 0-56 1m68 307v-66c36 0 72 0 108 1v65zm0-198v-86c35 0 73 2 108 4v86c-35-2-73-4-108-4" style="stroke:none;fill-rule:nonzero;fill:#000;fill-opacity:1"/></svg>

<?xml version="1.0" encoding="UTF-8"?>
<!--
	(c) 2010 Alexey Kryukov

    This work is free; you can redistribute it and/or modify
    it under the terms of the GNU General Public License as published by
    the Free Software Foundation; either version 2 of the License, or
    (at your option) any later version.

    This work is distributed in the hope that it will be useful,
    but WITHOUT ANY WARRANTY; without even the implied warranty of
    MERCHANTABILITY or FITNESS FOR A PARTICULAR PURPOSE.  See the
    GNU General Public License for more details.

    You should have received a copy of the GNU General Public License
    along with this program; if not, write to the Free Software
    Foundation, Inc., 51 Franklin Street, Fifth Floor, Boston, MA 02110-1301 USA
-->
<svg xmlns="http://www.w3.org/2000/svg" xmlns:xlink="http://www.w3.org/1999/xlink" width="1000pt" height="1000pt" viewBox="0 0 1000 1000" version="1.1">
<g id="surface0">
<path style="stroke-width:2;stroke-linecap:butt;stroke-linejoin:miter;stroke:white;stroke-opacity:1;stroke-miterlimit:10;fill-rule:nonzero;fill:white;fill-opacity:1;" d="M 192 903 C 192 881 200 863 209 852 L 209 754 L 284 642 L 284 287 L 226 216 L 226 76 C 260 71 305 67 333 67 L 340 126 L 425 126 L 425 63 C 449 61 476 60 500 60 C 524 60 550 61 574 63 L 574 126 L 660 126 L 667 66 C 695 66 740 71 774 76 L 774 216 L 716 287 L 716 642 L 791 754 L 791 852 C 800 863 808 881 808 903 C 808 913 807 923 804 934 L 196 934 C 193 923 192 913 192 903 "/>
<path style="stroke:none;fill-rule:nonzero;fill:black;fill-opacity:1;" d="M 192 903 C 192 881 200 863 209 852 L 209 754 L 284 642 L 284 287 L 226 216 L 226 76 C 260 71 305 67 333 67 L 340 126 L 425 126 L 425 63 C 449 61 476 60 500 60 C 524 60 550 61 574 63 L 574 126 L 660 126 L 667 66 C 695 66 740 71 774 76 L 774 216 L 716 287 L 716 642 L 791 754 L 791 852 C 800 863 808 881 808 903 C 808 913 807 923 804 934 L 196 934 C 193 923 192 913 192 903 M 227 842 C 227 847 227 849 228 852 L 772 852 C 773 849 773 847 773 842 C 773 837 770 832 766 828 L 234 828 C 230 832 227 837 227 842 M 250 206 C 330 194 400 189 496 189 C 592 189 670 194 750 206 L 750 150 L 250 150 L 250 206 M 256 744 C 256 747 256 751 258 754 L 742 754 C 744 751 744 747 744 744 C 744 729 738 717 719 698 L 281 698 C 262 717 256 729 256 744 M 292 674 L 708 674 C 708 665 703 656 694 650 L 644 650 L 644 586 C 660 586 676 587 692 588 L 692 564 C 656 562 618 560 580 560 L 580 478 C 620 480 659 482 692 484 L 692 460 C 677 459 661 458 644 457 L 644 372 C 661 373 677 374 692 376 L 692 352 C 659 348 620 346 580 344 L 580 290 C 620 292 659 294 692 296 L 692 270 C 621 264 572 262 500 262 C 428 262 379 264 308 270 L 308 296 C 341 294 380 292 420 290 L 420 344 C 380 346 341 348 308 352 L 308 376 C 323 374 339 373 356 372 L 356 457 C 339 458 323 459 308 460 L 308 484 C 341 482 380 480 420 478 L 420 560 C 382 560 344 562 308 564 L 308 588 C 324 587 340 586 356 586 L 356 650 L 306 650 C 297 656 292 665 292 674 M 380 650 L 380 585 C 416 584 452 584 488 584 L 488 650 L 380 650 M 380 456 L 380 370 C 415 368 453 366 488 366 L 488 452 C 453 452 415 454 380 456 M 444 560 L 444 477 C 463 476 482 476 500 476 C 518 476 537 476 556 477 L 556 560 L 444 560 M 444 343 L 444 289 C 463 288 482 288 500 288 C 518 288 537 288 556 289 L 556 343 C 537 342 518 342 500 342 C 482 342 463 342 444 343 M 512 650 L 512 584 C 548 584 584 584 620 585 L 620 650 L 512 650 M 512 452 L 512 366 C 547 366 585 368 620 370 L 620 456 C 585 454 547 452 512 452 "/>
</g>
</svg>
